assets/Goat/Flat/goat_flat.svg

<svg xmlns="http://www.w3.org/2000/svg" width="32" height="32" fill="none"><path fill="#D3883E" d="M12.027 29H9v-7.98l4-.02.01 3.85c0 .74-.29 1.45-.81 1.98-.12.11-.18.27-.18.44l.007 1.73ZM20 22v4.78c0 .15-.03.29-.1.42L18.62 29h3.35l1.73-1.58c.2-.27.31-.6.31-.94V22H20Z"/><path fill="#F3AD61" d="M28 21.62c0 .24.1.48.27.66l1.27 1.27c.3.29.46.69.46 1.1V29h-3v-1.67c0-.21-.1-.4-.26-.52l-5.09-3.64a.967.967 0 0 0-.55-.17H14v1.85c0 .74-.29 1.45-.82 1.98-.11.12-.18.27-.18.44V29h-3v-6c-1.31-.28-2.4-1.35-2.79-2.67l-1.78-7a.459.459 0 0 0-.44-.33l-.68.558L3.673 13H3.56C2.7 13 2 12.3 2 11.44c0-.28.11-.55.31-.75l3.05-3.05c.41-.41.97-.64 1.55-.64h2.54c.95 0 1.82.54 2.24 1.38l1.79 3.58c.32.64.97 1.04 1.68 1.04H25.5c.28 0 .5-.22.5-.5v-1.93c0-.34.33-.57.65-.46.78.27 1.35 1.01 1.35 1.89v9.62Z"/><path fill="#D3883E" d="m10.57 9.54-1.79.89.61 1.21c.36.71 1.15 1.23 1.94 1.28.44.03.74-.45.54-.84l-1.3-2.54Z"/><path fill="#6D4534" d="M9.31 30c-.17 0-.31-.14-.31-.31V28h4v1.69c0 .17-.14.31-.31.31H9.31ZM18.22 29.55 19.33 28h3.73l-1.78 1.62c-.18.24-.45.38-.75.38H18.5c-.23 0-.38-.24-.28-.45ZM30 29.69V28h-3v1.69c0 .17.14.31.31.31h2.38c.17 0 .31-.14.31-.31Z"/><path fill="#1C1C1C" d="M6 10.93c0 .28.22.5.5.5s.5-.22.5-.5v-.75c0-.28-.22-.5-.5-.5s-.5.22-.5.5v.75ZM3.06 12H2.1c-.06-.17-.1-.36-.1-.56 0-.16.03-.3.1-.44h.92c.64 0 .68.96.04 1Z"/><path fill="#9B9B9B" d="M15.92 5.57a.4.4 0 0 1 .08.23c0 .28-.31.45-.55.29-.56-.37-1.23-.59-1.95-.59-1.52 0-2.99.95-3.37 2.45-.12.45-.52.77-.98.77-.66 0-1.15-.63-.97-1.27C8.72 5.52 10.45 4 12.5 4c1.37 0 2.59.61 3.42 1.57ZM3.67 13.76V13H5v2h-.09c-.69 0-1.24-.56-1.24-1.24Z"/></svg>

<svg width="32" height="32" viewBox="0 0 32 32" fill="none" xmlns="http://www.w3.org/2000/svg">
<path d="M12.0271 29H9V21.02L13 21L13.01 24.85C13.01 25.59 12.72 26.3 12.2 26.83C12.08 26.94 12.02 27.1 12.02 27.27L12.0271 29Z" fill="#D3883E"/>
<path d="M20 22V26.78C20 26.93 19.97 27.07 19.9 27.2L18.6208 29H21.9692L23.7 27.42C23.9 27.15 24.01 26.82 24.01 26.48V22H20Z" fill="#D3883E"/>
<path d="M28 21.62C28 21.86 28.1 22.1 28.27 22.28L29.54 23.55C29.84 23.84 30 24.24 30 24.65V29H27V27.33C27 27.12 26.9 26.93 26.74 26.81L21.65 23.17C21.49 23.06 21.3 23 21.1 23H14V24.85C14 25.59 13.71 26.3 13.18 26.83C13.07 26.95 13 27.1 13 27.27V29H10V23C8.69 22.72 7.6 21.65 7.21 20.33L5.43 13.33C5.37 13.13 5.19 13 4.99 13L4.30918 13.5576L3.67431 13H3.56C2.7 13 2 12.3 2 11.44C2 11.16 2.11 10.89 2.31 10.69L5.36 7.64C5.77 7.23 6.33 7 6.91 7H9.45C10.4 7 11.27 7.54 11.69 8.38L13.48 11.96C13.8 12.6 14.45 13 15.16 13H25.5C25.78 13 26 12.78 26 12.5V10.57C26 10.23 26.33 10 26.65 10.11C27.43 10.38 28 11.12 28 12V21.62Z" fill="#F3AD61"/>
<path d="M10.57 9.54001L8.78003 10.43L9.39003 11.64C9.75003 12.35 10.54 12.87 11.33 12.92C11.77 12.95 12.07 12.47 11.87 12.08L10.57 9.54001Z" fill="#D3883E"/>
<path d="M9.31 30C9.14 30 9 29.86 9 29.69V28H13V29.69C13 29.86 12.86 30 12.69 30H9.31Z" fill="#6D4534"/>
<path d="M18.22 29.55L19.33 28H23.06L21.28 29.62C21.1 29.86 20.83 30 20.53 30H18.5C18.27 30 18.12 29.76 18.22 29.55Z" fill="#6D4534"/>
<path d="M30 29.69V28H27V29.69C27 29.86 27.14 30 27.31 30H29.69C29.86 30 30 29.86 30 29.69Z" fill="#6D4534"/>
<path d="M6 10.93C6 11.21 6.22 11.43 6.5 11.43C6.78 11.43 7 11.21 7 10.93V10.18C7 9.89999 6.78 9.67999 6.5 9.67999C6.22 9.67999 6 9.89999 6 10.18V10.93Z" fill="#1C1C1C"/>
<path d="M3.06 12H2.1C2.04 11.83 2 11.64 2 11.44C2 11.28 2.03 11.14 2.1 11H3.02C3.66 11 3.7 11.96 3.06 12Z" fill="#1C1C1C"/>
<path d="M15.92 5.57C15.97 5.64 16 5.72 16 5.8C16 6.08 15.69 6.25 15.45 6.09C14.89 5.72 14.22 5.5 13.5 5.5C11.98 5.5 10.51 6.45 10.13 7.95C10.01 8.4 9.60998 8.72 9.14998 8.72C8.48998 8.72 7.99998 8.09 8.17998 7.45C8.71998 5.52 10.45 4 12.5 4C13.87 4 15.09 4.61 15.92 5.57Z" fill="#9B9B9B"/>
<path d="M3.66998 13.76V13H4.99998V15H4.90998C4.21998 15 3.66998 14.44 3.66998 13.76Z" fill="#9B9B9B"/>
</svg>
